Newaita/actions/22/media-random-tracks-amarok.svg

<svg height="22" viewBox="0 0 22 22" width="22" xmlns="http://www.w3.org/2000/svg"><g fill="#424242"><path d="m5.914062 1.992188-3.183593 4.546874h2.277343c0 1.46875.859376 2.613282 1.914063 3.429688.339844.265625.707031.507812 1.089844.734375.632812-.382813 1.277343-.714844 1.898437-1.023437-.722656-.378907-1.375-.75-1.882812-1.140626-.816406-.636718-1.210938-1.195312-1.210938-2h2.28125zm5.558594 8.929687c-.183594.09375-.371094.183594-.558594.277344-.214843.109375-.425781.21875-.640624.328125.214843-.109375.425781-.21875.640624-.328125.1875-.09375.375-.183594.558594-.277344zm2.324219.839844c-.632813.351562-1.28125.664062-1.902344.972656.710938.398437 1.355469.808594 1.855469 1.257813.816406.730468 1.261719 1.464843 1.261719 2.550781h-.003907v3.183593c0 .253907.203126.457032.457032.457032h.90625c.253906 0 .457031-.203125.457031-.457032v-3.183593h-.003906c0-1.640625-.804688-2.949219-1.867188-3.898438-.359375-.324219-.75-.613281-1.160156-.882812zm0 0"/><path d="m15.917969 1.992188-3.183594 4.546874h2.277344c0 .804688-.390625 1.363282-1.210938 2-.820312.632813-2.03125 1.222657-3.289062 1.851563-1.261719.628906-2.578125 1.304687-3.640625 2.253906-1.058594.949219-1.863282 2.257813-1.863282 3.898438h-.003906v3.183593c0 .253907.203125.457032.453125.457032h.910157c.25 0 .453124-.203125.453124-.457032v-3.183593h-.003906c0-1.085938.449219-1.820313 1.261719-2.550781.816406-.726563 2-1.363282 3.242187-1.980469 1.242188-.621094 2.53125-1.226563 3.585938-2.042969 1.058594-.816406 1.917969-1.960938 1.917969-3.429688h2.277343zm0 0"/><path d="m9.097656 15.636719c-.253906 0-.457031.199219-.457031.453125 0 .25.203125.453125.457031.453125h.90625v3.183593c0 .253907.203125.457032.457032.457032h.910156c.25 0 .453125-.203125.453125-.457032v-3.636718c0-.054688-.007813-.109375-.027344-.15625-.003906-.015625-.011719-.027344-.015625-.042969-.023438-.042969-.054688-.085937-.089844-.121094-.011718-.011719-.019531-.023437-.03125-.03125-.058594-.046875-.125-.078125-.199218-.09375-.027344-.007812-.058594-.007812-.089844-.007812zm0 0"/></g></svg>

<?xml version="1.0" encoding="UTF-8"?>
<svg xmlns="http://www.w3.org/2000/svg" xmlns:xlink="http://www.w3.org/1999/xlink" width="22px" height="22px" viewBox="0 0 22 22" version="1.1">
<g id="surface1">
<path style=" stroke:none;fill-rule:nonzero;fill:rgb(25.882354%,25.882354%,25.882354%);fill-opacity:1;" d="M 5.914062 1.992188 L 2.730469 6.539062 L 5.007812 6.539062 C 5.007812 8.007812 5.867188 9.152344 6.921875 9.96875 C 7.261719 10.234375 7.628906 10.476562 8.011719 10.703125 C 8.644531 10.320312 9.289062 9.988281 9.910156 9.679688 C 9.1875 9.300781 8.535156 8.929688 8.027344 8.539062 C 7.210938 7.902344 6.816406 7.34375 6.816406 6.539062 L 9.097656 6.539062 Z M 11.472656 10.921875 C 11.289062 11.015625 11.101562 11.105469 10.914062 11.199219 C 10.699219 11.308594 10.488281 11.417969 10.273438 11.527344 C 10.488281 11.417969 10.699219 11.308594 10.914062 11.199219 C 11.101562 11.105469 11.289062 11.015625 11.472656 10.921875 Z M 13.796875 11.761719 C 13.164062 12.113281 12.515625 12.425781 11.894531 12.734375 C 12.605469 13.132812 13.25 13.542969 13.75 13.992188 C 14.566406 14.722656 15.011719 15.457031 15.011719 16.542969 L 15.007812 16.542969 L 15.007812 19.726562 C 15.007812 19.980469 15.210938 20.183594 15.464844 20.183594 L 16.371094 20.183594 C 16.625 20.183594 16.828125 19.980469 16.828125 19.726562 L 16.828125 16.542969 L 16.824219 16.542969 C 16.824219 14.902344 16.019531 13.59375 14.957031 12.644531 C 14.597656 12.320312 14.207031 12.03125 13.796875 11.761719 Z M 13.796875 11.761719 "/>
<path style=" stroke:none;fill-rule:nonzero;fill:rgb(25.882354%,25.882354%,25.882354%);fill-opacity:1;" d="M 15.917969 1.992188 L 12.734375 6.539062 L 15.011719 6.539062 C 15.011719 7.34375 14.621094 7.902344 13.800781 8.539062 C 12.980469 9.171875 11.769531 9.761719 10.511719 10.390625 C 9.25 11.019531 7.933594 11.695312 6.871094 12.644531 C 5.8125 13.59375 5.007812 14.902344 5.007812 16.542969 L 5.003906 16.542969 L 5.003906 19.726562 C 5.003906 19.980469 5.207031 20.183594 5.457031 20.183594 L 6.367188 20.183594 C 6.617188 20.183594 6.820312 19.980469 6.820312 19.726562 L 6.820312 16.542969 L 6.816406 16.542969 C 6.816406 15.457031 7.265625 14.722656 8.078125 13.992188 C 8.894531 13.265625 10.078125 12.628906 11.320312 12.011719 C 12.5625 11.390625 13.851562 10.785156 14.90625 9.96875 C 15.964844 9.152344 16.824219 8.007812 16.824219 6.539062 L 19.101562 6.539062 Z M 15.917969 1.992188 "/>
<path style=" stroke:none;fill-rule:nonzero;fill:rgb(25.882354%,25.882354%,25.882354%);fill-opacity:1;" d="M 9.097656 15.636719 C 8.84375 15.636719 8.640625 15.835938 8.640625 16.089844 C 8.640625 16.339844 8.84375 16.542969 9.097656 16.542969 L 10.003906 16.542969 L 10.003906 19.726562 C 10.003906 19.980469 10.207031 20.183594 10.460938 20.183594 L 11.371094 20.183594 C 11.621094 20.183594 11.824219 19.980469 11.824219 19.726562 L 11.824219 16.089844 C 11.824219 16.035156 11.816406 15.980469 11.796875 15.933594 C 11.792969 15.917969 11.785156 15.90625 11.78125 15.890625 C 11.757812 15.847656 11.726562 15.804688 11.691406 15.769531 C 11.679688 15.757812 11.671875 15.746094 11.660156 15.738281 C 11.601562 15.691406 11.535156 15.660156 11.460938 15.644531 C 11.433594 15.636719 11.402344 15.636719 11.371094 15.636719 Z M 9.097656 15.636719 "/>
</g>
</svg>
